X:1
T:The Star-Spangled Banner
T:The Star-Spangled Banner
T:John Stafford Smith arr. Sergey Rachmaninoff
%%score { ( 1 3 4 ) | 2 }
L:1/8
Q:1/4=85
M:3/4
K:Bb
V:1 treble nm="Piano" snm="Pno."
V:3 treble 
V:4 treble 
V:2 bass 
V:1
!f! F>D | B,2 [F,B,D]2 [F,CF]2 | [B,DGB]4!>(! [DAd]>[Cc] | [DGB]2 [B,D]2 [G,B,C=E]2!>)! | %4
 [F,A,CF]4 [A,E]2 | [DFBd]2 [EFAc]2 [B,B]2 | [CFA]4 [CF]2 | [B,FB]2 [B,FB]2 [A,CF]2 | %8
 [B,D]2 B,2 F>D | B,2 [F,B,D]2 [F,DF]2 | [B,DGB]4 [DAd]>[Cc] | [B,DGB]2 [B,D]2 =E2 | %12
 [F,A,CF]2 z2 [A,!courtesy!_E]2 | [DFBd]2 [EFAc]2 [B,B]2 | [CFA]4 [CF]2 | %15
!>(! [B,FB] z [B,FB]2 [A,CF]2 | [B,D]2 B,2 [Bd]!>)![Bd] |!mp! [Bd]2 [Bce]2 [Bdf]2 | %18
 [Bdf]4 [Fce][FBd] | [FAc]2 [FBd]2 [FAce]2 | [FAce]4 z [FAce] | [FBd]3"_cresc." [EFAc] [B,B]2 | %22
 [CFA]4 [CF]2 | [B,FB]2 [F,B,D]2 [C=E]2 | [F,A,-C-F-]2 [A,CF]2 [A,CF]2 | %25
 [B,B]2 [B,B]2 [B,DB][A,CA] | [G,EG]2 [G,EG]2 [G,=B,FG]2 | %27
"_rall." [CGc]2 [EGce][DFGd] [CEGc]>[B,=EG!courtesy!_B] | %28
 !fermata![B,FB]2 !fermata![A,CFA] z [A,CF]>[A,CF] | [B,FB]2 z [CFAc] [DFBd][GBce] | %30
 !fermata![Bdf]4 [B,C=EB][CEBc] |[Q:1/4=75] [DFBd]3 [Ee] [CEGBc][Q:1/4=30][CFA]/>[B,B]/ | %32
 [B,DFB]6 |] %33
V:2
 [F,,F,]>[D,,D,] | [B,,,B,,]2 [B,,,B,,]2 [A,,,A,,]2 | [G,,,D,,G,,]4 [^F,,D,A,]2 | %3
 [G,,D,B,]2 [G,,,G,,]2 [C,,C,]2 |!mf! [F,,,F,,]4{/F,,} [F,,F,]2 | %5
 [B,,,B,,]2 [C,,C,]2 [D,,D,][E,,E,] | [F,,F,]2 [F,,,F,,]2 [E,,E,]2 | %7
!<(! [D,,D,][B,,,B,,] [D,,D,]2 [F,,C,F,]2 | [B,,D,F,]2 B,,2!<)! [F,,F,]>[D,,D,] | %9
!f! [B,,,B,,]2 [B,,,B,,]2 [D,,D,]>[B,,,B,,] | [G,,,G,,]4{/[^F,,,^F,,]} [F,,D,A,]2 | %11
 [G,,D,]2!mf! [G,,,G,,]2 [A,,,A,,]>[G,,,G,,] | [F,,,F,,][F,,F,] [F,,F,-]2{/F,,} [F,,F,]2 | %13
 [B,,,B,,]2 [C,,C,]2 [D,,D,][E,,E,] | [F,,F,]2 [F,,,F,,]2 [E,,E,]2 | %15
 [D,,D,][B,,,B,,] [D,,D,]2 [F,,C,F,]2 | [B,,D,F,]4 [B,DF][B,DF] | [B,DF]2 [B,CEF]2 [B,DF]2 | %18
 [B,DF].[B,,,B,,] .[D,,D,].[F,,F,] [B,,F,B,]2 | [F,A,C]2 [F,B,D]2 [F,A,CE]2 | %20
 [F,A,CE].[F,,,F,,] .[A,,,A,,].[C,,C,] [F,,F,][F,A,CE] | [B,D]2 [B,,,B,,][C,,C,] [D,,D,][E,,E,] | %22
 [F,,F,]2 [F,,,F,,]2 [E,,E,]2 | [D,,D,]>[C,,C,] [B,,,B,,]2 [A,,,A,,]>[G,,,G,,] | %24
!f! [F,,,F,,]2 [F,,F,][G,,G,] [F,,F,][E,,!courtesy!_E,] | %25
 [D,,D,][E,,E,] [D,,D,][C,,C,] [B,,,B,,][D,,D,] | [E,,E,][F,,F,] [G,,G,][F,,F,] [E,,E,][D,,D,] | %27
 [E,,E,][D,,D,] [C,,G,,C,][D,,G,,D,] [E,,G,,C,E,]>[G,,C,=E,] | %28
 !fermata![F,,B,,D,F,]2 !fermata![F,,C,F,] z [F,,F,]>[E,,E,] | %29
 [D,,D,]2 z [F,,C,A,] [B,,F,B,][G,B,CE] | !fermata![B,DF]4!f!{/C,,} [G,,C,=E,][G,,C,E,B,] | %31
 [D,F,B,]3 [F,,,F,,] [E,G,B,][F,,C,E,A,]/>[B,,,B,,]/ |!ff! [B,,,F,,B,,D,]6 |] %33
V:3
 x2 | x6 | x6 | x2[I:staff +1] [D,G,]2 x2 | x4[I:staff -1] FF | x4 FG | x4 GA | x6 | x6 | x6 | x6 | %11
 x2[I:staff +1] [D,G,]2 =E,2 | x4[I:staff -1] FF | x4 FG | x4 GA | x6 | x6 | x6 | x6 | x6 | x6 | %21
 x4 FG | x4 GA | x4[I:staff +1] =E,2 | x6 |[I:staff -1] FG FE x2 | x6 | x6 | x6 | x6 | x6 | x6 | %32
 x6 |] %33
V:4
 x2 | x6 | x6 | x6 | x6 | x6 | x6 | x6 | x6 | x6 | x6 | x4 C>B, | x6 | x6 | x6 | x6 | x6 | x6 | %18
 x6 | x6 | x6 | x6 | x6 | x6 | x6 | x6 | x6 | x6 | x6 | x6 | x6 | x6 | x6 |] %33

